icons/telemedicine_fill.svg

<svg width="48" height="48" viewBox="0 0 48 48" fill="none" xmlns="http://www.w3.org/2000/svg">
<path fill-rule="evenodd" clip-rule="evenodd" d="M8 6C6.89543 6 6 6.89543 6 8V34C6 35.1046 6.89543 36 8 36H23V40H16V42H32V40H25V36H40C41.1046 36 42 35.1046 42 34V8C42 6.89543 41.1046 6 40 6H8ZM39 34V10H9V34H12V31.3799C12 29.3584 14.4066 26.7582 17.2207 25.6536C17.2282 26.068 17.2675 27.2121 17.3242 27.6659C17.3853 28.1556 17.4686 28.6436 17.5604 29.0446C17.5801 29.1306 17.6005 29.2142 17.6217 29.2944C17.0488 29.6461 16.6667 30.2784 16.6667 31C16.6667 32.1046 17.5621 33 18.6667 33C19.7712 33 20.6667 32.1046 20.6667 31C20.6667 29.984 19.909 29.1449 18.9279 29.0169C18.9061 28.9386 18.8833 28.8483 18.8601 28.747C18.7802 28.3981 18.704 27.9555 18.6472 27.5008C18.5532 26.7468 18.5057 25.9579 18.5631 25.1983C18.8195 25.1247 19.0768 25.0584 19.3333 25C19.592 24.9411 19.7674 25.3904 19.8951 25.7177C19.9342 25.8178 19.9688 25.9065 20 25.9658C21.3055 25.9658 22.6527 25.9743 24 25.9829C25.3473 25.9914 26.6945 26 28 26C28.0383 25.9272 28.0784 25.8228 28.1222 25.7086C28.2524 25.3692 28.4159 24.9429 28.6667 25C29.0242 25.0814 29.383 25.1781 29.7393 25.2886C29.7384 25.5468 29.7431 25.8102 29.7477 26.0768C29.7646 27.0451 29.7823 28.0545 29.5435 29H28.6667C28.4142 29 28.1833 29.1427 28.0704 29.3685L27.4037 30.7019C27.3574 30.7944 27.3333 30.8965 27.3333 31V32.3333C27.3333 32.7015 27.6318 33 28 33H29.3333V31.6667H28.6667V31.1574L29.0787 30.3333H30.9213L31.3333 31.1574V31.6667H30.6667V33H32C32.3682 33 32.6667 32.7015 32.6667 32.3333V31C32.6667 30.8965 32.6426 30.7944 32.5963 30.7019L31.9296 29.3685C31.8167 29.1427 31.5858 29 31.3333 29H30.9095C31.1222 27.9397 31.1355 26.8744 31.1346 25.7983C33.793 26.9215 36 29.4441 36 31.3799V34H39ZM18.6667 31.6765C19.0256 31.6765 19.3333 31.3828 19.3333 31C19.3333 30.6172 19.0256 30.3235 18.6667 30.3235C18.3077 30.3235 18 30.6172 18 31C18 31.3828 18.3077 31.6765 18.6667 31.6765ZM24 9C24.5523 9 25 8.55228 25 8C25 7.44772 24.5523 7 24 7C23.4477 7 23 7.44772 23 8C23 8.55228 23.4477 9 24 9Z" fill="black"/>
<path d="M30 18C30 21.3137 27.3137 24 24 24C20.6863 24 18 21.3137 18 18C18 14.6863 20.6863 12 24 12C27.3137 12 30 14.6863 30 18Z" fill="black"/>
</svg>

<svg
  xmlns="http://www.w3.org/2000/svg"
  width="24"
  height="24"
  viewBox="0 0 24 24"
  fill="none"
  stroke="currentColor"
  stroke-width="2"
  stroke-linecap="round"
  stroke-linejoin="round"
>
  <path
    fill-rule="evenodd"
    d="M8 6a2 2 0 0 0-2 2v26a2 2 0 0 0 2 2h15v4h-7v2h16v-2h-7v-4h15a2 2 0 0 0 2-2V8a2 2 0 0 0-2-2zm31 28V10H9v24h3v-2.62c0-2.022 2.407-4.622 5.22-5.726.008.414.047 1.558.104 2.012.061.49.145.978.236 1.379q.03.13.062.25A1.999 1.999 0 0 0 18.667 33a2 2 0 0 0 .26-3.983 6 6 0 0 1-.067-.27c-.08-.349-.156-.791-.213-1.246-.094-.754-.141-1.543-.084-2.303q.386-.11.77-.198c.259-.059.434.39.562.718.04.1.074.189.105.248 1.305 0 2.653.008 4 .017 1.347.008 2.695.017 4 .017.038-.073.078-.177.122-.291.13-.34.294-.766.545-.709q.537.122 1.072.289 0 .387.009.788c.017.968.034 1.977-.204 2.923h-.877a.67.67 0 0 0-.597.369l-.666 1.333a.7.7 0 0 0-.07.298v1.333c0 .369.298.667.666.667h1.333v-1.333h-.666v-.51l.412-.824h1.842l.412.824v.51h-.666V33H32a.667.667 0 0 0 .667-.667V31a.7.7 0 0 0-.07-.298l-.667-1.334a.67.67 0 0 0-.597-.368h-.423c.212-1.06.226-2.126.225-3.202C33.793 26.922 36 29.444 36 31.38V34zm-20.333-2.323a.67.67 0 0 0 .666-.677.67.67 0 0 0-.666-.677A.67.67 0 0 0 18 31c0 .383.308.677.667.677M24 9a1 1 0 1 0 0-2 1 1 0 0 0 0 2"
    clip-rule="evenodd"
  />
  <path d="M30 18a6 6 0 1 1-12 0 6 6 0 0 1 12 0" />
</svg>
